X: 47
T: Benedictus dominus deus
N: Derived from Mar2009-Benedictus_dominus_deus_Israel.krn
C: Johannes Martini
%%abc-version 2.0
%%abcx-abcm2ps-target-version 5.9.1 (29 Sep 2008)
%%abc-creator hum2abc beta
%%abcx-conversion-date 2019/02/17 07:19:41
%%abc-edited-by Jesse Rodin
%%abc-edited-by Chris Gage 12-04-2013
%%abcx-initial-encoding-date 2014/10/09/
%%humdrum-veritas 560586967
%%humdrum-veritas-data 2543852112
%%linebreak <none>
%%barnumbers 0
L: 1/4
M: 4/2
Q: 1/2=120
V: 1 clef=treble
V: 2 clef=treble-8
V: 3 clef=treble-8
K: C
[V:1] A4A2A2 | 
[V:2] e4e2e2 | 
[V:3] A4c2c2 | 
[V:1] A2A2A4 | 
[V:2] e2e2e4 | 
[V:3] c2c2c4 | 
[V:1] G2F2G4 | 
[V:2] d2c2d4 | 
[V:3] B2A2B4 | 
[V:1] A4A2A2 | 
[V:2] e4e2e2 | 
[V:3] A4c2c2 | 
[V:1] A4G4 | 
[V:2] e4d4 | 
[V:3] c4B4 | 
[V:1] F4E2F2- | 
[V:2] c4B2c2- | 
[V:3] A4G2A2- | 
[V:1] F2EDC2D2- | 
[V:2] c2BAG2A2- | 
[V:3] A2GFE2D2 | 
[V:1] D2^C2D4 ||  
[V:2] A2G2A4 ||  
[V:3] E4D4 ||  
[V:1] F3GA2_B2- | 
[V:2] z8 | 
[V:3] A3Bc2d2- | 
[V:1] B2A4G2 | 
[V:2] z8 | 
[V:3] d2c2_B4 | 
[V:1] A4A2A2 | 
[V:2] z8 | 
[V:3] A4c2c2 | 
[V:1] A2A2A4 | 
[V:2] z8 | 
[V:3] c2c2c4 | 
[V:1] A2_B3AGF | 
[V:2] z8 | 
[V:3] c2d3c_BA | 
[V:1] G4A4 | 
[V:2] z8 | 
[V:3] _B4A4 | 
[V:1] z4A4 | 
[V:2] z8 | 
[V:3] z4c4 | 
[V:1] A2A2A4 | 
[V:2] z8 | 
[V:3] c2c2c4 | 
[V:1] G2F2G2A2- | 
[V:2] z8 | 
[V:3] B2A2B2c2- | 
[V:1] A2GFE2F2- | 
[V:2] z8 | 
[V:3] c2BAG2A2- | 
[V:1] FED4^C2 | 
[V:2] z8 | 
[V:3] AGF2E4 | 
[V:1] D8 ||  
[V:2] z8 ||  
[V:3] D8 ||  
[V:1] F4G4 | 
[V:2] c4d4 | 
[V:3] A4B4 | 
[V:1] A4A2A2 | 
[V:2] e4e2e2 | 
[V:3] c4c2c2 | 
[V:1] A4G4 | 
[V:2] e4d4 | 
[V:3] c4B4 | 
[V:1] F3GA2_B2- | 
[V:2] c3de2f2- | 
[V:3] A4c2d2- | 
[V:1] B2A4GF | 
[V:2] f2e4dc | 
[V:3] d2c4BA | 
[V:1] G4A4 | 
[V:2] d4e4 | 
[V:3] B4A4 | 
[V:1] z4A4 | 
[V:2] z4e4 | 
[V:3] z4c4 | 
[V:1] A2A2A2A2 | 
[V:2] e2e2e2e2 | 
[V:3] c2c2c2c2 | 
[V:1] A4G2F2 | 
[V:2] e4d2c2 | 
[V:3] c4B2A2 | 
[V:1] G2A4GF | 
[V:2] d2e4dc | 
[V:3] B2c4BA | 
[V:1] E2F4D2- | 
[V:2] B2c4A2- | 
[V:3] G2A4F2 | 
[V:1] D2^C2D4 ||  
[V:2] A2G2A4 ||  
[V:3] E4D4 ||  
[V:1] F4E3F | 
[V:2] z8 | 
[V:3] A4G3A | 
[V:1] G2A4G2 | 
[V:2] z8 | 
[V:3] B2c2B4 | 
[V:1] A4A4 | 
[V:2] z8 | 
[V:3] A4c4 | 
[V:1] A2A2A4 | 
[V:2] z8 | 
[V:3] c2c2c4 | 
[V:1] G4F2_B2- | 
[V:2] z8 | 
[V:3] B4A2d2- | 
[V:1] B2A4G2 | 
[V:2] z8 | 
[V:3] d2c2_B4 | 
[V:1] A4z4 | 
[V:2] z8 | 
[V:3] A4z4 | 
[V:1] A4A2A2- | 
[V:2] z8 | 
[V:3] c4c2c2- | 
[V:1] A2A2A2A2 | 
[V:2] z8 | 
[V:3] c2c2c2c2 | 
[V:1] A4G4 | 
[V:2] z8 | 
[V:3] c4B4 | 
[V:1] F4G2A2- | 
[V:2] z8 | 
[V:3] A4B2c2- | 
[V:1] A2GFE2F2- | 
[V:2] z8 | 
[V:3] c2BAG2A2- | 
[V:1] F2D4^C2 | 
[V:2] z8 | 
[V:3] A2F2E4 | 
[V:1] D8 ||  
[V:2] z8 ||  
[V:3] D8 ||  
[V:1] F4G4 | 
[V:2] c4d4 | 
[V:3] A4B4 | 
[V:1] A2A2A4 | 
[V:2] e2e2e4 | 
[V:3] c2c2c4 | 
[V:1] A4A2A2 | 
[V:2] e4e2e2 | 
[V:3] c4c2c2 | 
[V:1] A2A2A4 | 
[V:2] e2e2e4 | 
[V:3] c2c2c4 | 
[V:1] G4F2G2 | 
[V:2] d4c2d2 | 
[V:3] _B4A2_B2 | 
[V:1] A2_B4A2- | 
[V:2] e2f4e2- | 
[V:3] c2d4c2 | 
[V:1] A2G2A4 | 
[V:2] e2d2e4 | 
[V:3] _B4A4 | 
[V:1] z4A4 | 
[V:2] z4e4 | 
[V:3] z4c4 | 
[V:1] A2A2A4 | 
[V:2] e2e2e4 | 
[V:3] c2c2c4 | 
[V:1] A4G2F2 | 
[V:2] e4d2c2 | 
[V:3] c4B2A2 | 
[V:1] G2A4GF | 
[V:2] d2e4dc | 
[V:3] B2c4BA | 
[V:1] E2F4D2- | 
[V:2] B2c4A2- | 
[V:3] G2A4F2 | 
[V:1] D2^C2D4 ||  
[V:2] A2G2A4 ||  
[V:3] E4D4 ||  
[V:1] F4G2G2 | 
[V:2] z8 | 
[V:3] A4B2B2 | 
[V:1] A4A4 | 
[V:2] z8 | 
[V:3] c4c4 | 
[V:1] A2A2A4 | 
[V:2] z8 | 
[V:3] c2c2c4 | 
[V:1] A4A2A2 | 
[V:2] z8 | 
[V:3] c4c2c2 | 
[V:1] A4G4 | 
[V:2] z8 | 
[V:3] c4B4 | 
[V:1] F3GA2_B2- | 
[V:2] z8 | 
[V:3] A3Bc2d2- | 
[V:1] B2A4G2 | 
[V:2] z8 | 
[V:3] d2c2_B4 | 
[V:1] A4z4 | 
[V:2] z8 | 
[V:3] A4z4 | 
[V:1] A4A4 | 
[V:2] z8 | 
[V:3] c4c4 | 
[V:1] G4F4 | 
[V:2] z8 | 
[V:3] B4A4 | 
[V:1] G2A4GF | 
[V:2] z8 | 
[V:3] B2c4BA | 
[V:1] E2F3ED2- | 
[V:2] z8 | 
[V:3] G2A3GF2 | 
[V:1] D2^C2D4 ||  
[V:2] z8 ||  
[V:3] E4D4 ||  
[V:1] F4G4 | 
[V:2] c4d4 | 
[V:3] A4B4 | 
[V:1] A4A2A2 | 
[V:2] e4e2e2 | 
[V:3] c4c2c2 | 
[V:1] A4A2A2 | 
[V:2] e4e2e2 | 
[V:3] c4c2c2 | 
[V:1] A4G2G2 | 
[V:2] e4d2d2 | 
[V:3] c4_B4 | 
[V:1] G2G2G4 | 
[V:2] d2d2d4 | 
[V:3] _B2_B2_B4 | 
[V:1] G4F2G2 | 
[V:2] d4c2d2 | 
[V:3] _B4A2_B2 | 
[V:1] A2_B4A2- | 
[V:2] e2f4e2- | 
[V:3] c2d4c2 | 
[V:1] A2G2A4 | 
[V:2] e2d2e4 | 
[V:3] _B4A4 | 
[V:1] z4A2A2 | 
[V:2] z4e2e2 | 
[V:3] z4c2c2 | 
[V:1] A4G2F2 | 
[V:2] e4d2c2 | 
[V:3] c4B2A2 | 
[V:1] E2F4ED | 
[V:2] B2c4BA | 
[V:3] G2A4GF | 
[V:1] C2D4^C2 | 
[V:2] G2A4G2 | 
[V:3] E2D2E4 | 
[V:1] D8 ||  
[V:2] A8 ||  
[V:3] D8 ||  
[V:1] F4G4 | 
[V:2] z8 | 
[V:3] A4B4 | 
[V:1] A2A2A4 | 
[V:2] z8 | 
[V:3] c2c2c4 | 
[V:1] A2A2A2A2 | 
[V:2] z8 | 
[V:3] c2c2c2c2 | 
[V:1] A4G4 | 
[V:2] z8 | 
[V:3] c4B4 | 
[V:1] F4E3F | 
[V:2] z8 | 
[V:3] A4G3A | 
[V:1] G2A4^G2 | 
[V:2] z8 | 
[V:3] B2A2B4 | 
[V:1] A4z4 | 
[V:2] z8 | 
[V:3] A4z4 | 
[V:1] A2A2A4 | 
[V:2] z8 | 
[V:3] c2c2c4 | 
[V:1] G4F4 | 
[V:2] z8 | 
[V:3] B4A4 | 
[V:1] G2A4GF | 
[V:2] z8 | 
[V:3] B2c4BA | 
[V:1] E2F4ED | 
[V:2] z8 | 
[V:3] G2A4GF | 
[V:1] C2D4^C2 | 
[V:2] z8 | 
[V:3] E2D2E4 | 
[V:1] D8 ||  
[V:2] z8 ||  
[V:3] D8 ||  
[V:1] F4G4 | 
[V:2] c4d4 | 
[V:3] A4B4 | 
[V:1] A4A4 | 
[V:2] e4e4 | 
[V:3] c4c4 | 
[V:1] A2A2A4 | 
[V:2] e2e2e4 | 
[V:3] c2c2c4 | 
[V:1] A4A2A2 | 
[V:2] e4e2e2 | 
[V:3] c4c2c2 | 
[V:1] A4G4 | 
[V:2] e4d4 | 
[V:3] c4B4 | 
[V:1] F3GA2_B2- | 
[V:2] c3de2f2- | 
[V:3] A3Bc2d2- | 
[V:1] B2A4G2 | 
[V:2] f2e4d2 | 
[V:3] d2c2_B4 | 
[V:1] A4z4 | 
[V:2] e4z4 | 
[V:3] A4z4 | 
[V:1] A2A2A2A2 | 
[V:2] e2e2e2e2 | 
[V:3] c2c2c2c2 | 
[V:1] A4A2A2 | 
[V:2] e4e2e2 | 
[V:3] A4c2c2 | 
[V:1] A2A2A4 | 
[V:2] e2e2e4 | 
[V:3] c2c2c4 | 
[V:1] G2A3GF2- | 
[V:2] d2e3dc2- | 
[V:3] B2c3BA2 | 
[V:1] F2E2F4 | 
[V:2] c2B2c4 | 
[V:3] G4F4 | 
[V:1] z4G4 | 
[V:2] z4d4 | 
[V:3] A4B4 | 
[V:1] G2G2A4 | 
[V:2] d2d2e4 | 
[V:3] B2B2c4 | 
[V:1] G2F2E2F2- | 
[V:2] d2c2B2c2- | 
[V:3] B2A2G2A2- | 
[V:1] F2EDC2D2- | 
[V:2] c2BAG2A2- | 
[V:3] A2GFE2D2 | 
[V:1] D2^C2D4 ||  
[V:2] A2G2A4 ||  
[V:3] E4D4 ||  
[V:1] F4G4 | 
[V:2] z8 | 
[V:3] A4B4 | 
[V:1] A4A4 | 
[V:2] z8 | 
[V:3] c4c4 | 
[V:1] A2A2A4 | 
[V:2] z8 | 
[V:3] c2c2c4 | 
[V:1] A2A2A4 | 
[V:2] z8 | 
[V:3] c2c2c4 | 
[V:1] G4F3G | 
[V:2] z8 | 
[V:3] B4A3B | 
[V:1] A2_B4A2- | 
[V:2] z8 | 
[V:3] c2d4c2 | 
[V:1] A2G2A4 | 
[V:2] z8 | 
[V:3] _B4A4 | 
[V:1] z4A4 | 
[V:2] z8 | 
[V:3] z4c4 | 
[V:1] A2A2A2A2 | 
[V:2] z8 | 
[V:3] c2c2c2c2 | 
[V:1] A4G4 | 
[V:2] z8 | 
[V:3] c4B4 | 
[V:1] F4E2F2- | 
[V:2] z8 | 
[V:3] A4G2A2- | 
[V:1] F2E2D2E2- | 
[V:2] z8 | 
[V:3] A2G2F2G2- | 
[V:1] E2D4^C2 | 
[V:2] z8 | 
[V:3] G2F2E4 | 
[V:1] D8 ||  
[V:2] z8 ||  
[V:3] D8 ||  
[V:1] F4G2G2 | 
[V:2] c4d2d2 | 
[V:3] A4B2B2 | 
[V:1] A4A4 | 
[V:2] e4e4 | 
[V:3] c4c4 | 
[V:1] A2A2A2A2 | 
[V:2] e2e2e2e2 | 
[V:3] c2c2c2c2 | 
[V:1] A4G4 | 
[V:2] e4d4 | 
[V:3] c4B4 | 
[V:1] F3GA2_B2- | 
[V:2] c3de2f2- | 
[V:3] A3Bc2d2- | 
[V:1] B2A4G2 | 
[V:2] f2e4d2 | 
[V:3] d2c2_B4 | 
[V:1] A4z4 | 
[V:2] e4z4 | 
[V:3] A4z4 | 
[V:1] A4A4 | 
[V:2] e4e4 | 
[V:3] c4c4 | 
[V:1] A4A2A2 | 
[V:2] e4e2e2 | 
[V:3] c4c2c2 | 
[V:1] A4A4 | 
[V:2] e4e4 | 
[V:3] c4c4 | 
[V:1] G4F4 | 
[V:2] d4c4 | 
[V:3] B4A4 | 
[V:1] G2A4GF | 
[V:2] d2e4dc | 
[V:3] B2c4BA | 
[V:1] E2F4D2- | 
[V:2] B2c4A2- | 
[V:3] G2A4F2 | 
[V:1] D2^C2D4 ||  
[V:2] A2G2A4 ||  
[V:3] E4D4 ||  
[V:1] F4G4 | 
[V:2] z8 | 
[V:3] A4B4 | 
[V:1] A2A2A4 | 
[V:2] z8 | 
[V:3] c2c2c4 | 
[V:1] A4A2A2 | 
[V:2] z8 | 
[V:3] c4c2c2 | 
[V:1] A2A2A4 | 
[V:2] z8 | 
[V:3] c2c2c4 | 
[V:1] A2A2A4 | 
[V:2] z8 | 
[V:3] c2c2c4 | 
[V:1] G4F3G | 
[V:2] z8 | 
[V:3] B4A3B | 
[V:1] A2_B4A2- | 
[V:2] z8 | 
[V:3] c2d4c2 | 
[V:1] A2G2A4 | 
[V:2] z8 | 
[V:3] _B4A4 | 
[V:1] z4A2A2 | 
[V:2] z8 | 
[V:3] z4c2c2 | 
[V:1] A2A2A4 | 
[V:2] z8 | 
[V:3] c2c2c4 | 
[V:1] G2F2G4 | 
[V:2] z8 | 
[V:3] B2A2B4 | 
[V:1] A4A4 | 
[V:2] z8 | 
[V:3] A4c4 | 
[V:1] A4_B2A2- | 
[V:2] z8 | 
[V:3] c4d2c2- | 
[V:1] A2G4^F2 | 
[V:2] z8 | 
[V:3] c2B2A4 | 
[V:1] G8 |]  
[V:2] z8 |]  
[V:3] G8 |]  



